X:1
T:Title
%%score { 1 | 2 } { 3 | 4 }
L:1/8
Q:1/4=104
M:4/4
K:C
V:1 treble nm="Grand Piano, Unnamed-000"
V:2 treble 
V:3 bass nm="Choir Pad, Albany, 11.10.11.10"
V:4 bass 
V:1
 G2 G>G G3 A | GcBE A2 G2 | G2 A>A B2 c2 | dB B>A G4 | A2 A>A d3 A | A^GAB d2 c2 | c2 c>c cGEG | %7
w: By~J.~Albert~Jeffrey,~1886 * * * *|||||||
 G2 d2 c4- | c4 z4 |] %9
w: ||
V:2
 E2 E>E F3 F | EE .E2 F2 F2 | E2 E>E E2 EC | B,D ^F>F z4 | E2 E>E D3 D | EEEE E2 E2 | %6
 F2 ^F>F .G2 z2 | F2 F2 E4- | E4 z4 |] %9
V:3
 G,2 A,>_B, =B,3 B, | CCCC B,2[K:bass] B,2 | C2 A,>A, G,2 A,2 | G,B,[K:treble] D>C B,4 | %4
 C2 ^C>C D3 D | B,B,B,B, B,2 A,2 | C2 C>C EG,[K:bass]E,G, | B,2 B,2 C4- | C4 z4 |] %9
V:4
 C,2 ^C,>C, D,3 G,, | G,C,E,G, G,2 G,2 | C,2 C,>C, B,,2 A,,2 | D,D, D,>D, G,4 | G,2 G,>G, F,3 F, | %5
 E,E,^F,^G, G,2 z2 | A,2 ^G,>G, .=G,2 z2 | G,2 G,2 C,4- | C,4 z4 |] %9

